svg/package-uninstall.svg

<?xml version="1.0" encoding="UTF-8"?>
<svg xmlns="http://www.w3.org/2000/svg" xmlns:xlink="http://www.w3.org/1999/xlink" width="33.507999" height="32" viewBox="0 0 33.507999 32">
<path fill-rule="nonzero" fill="rgb(25.098039%, 25.098039%, 25.490196%)" fill-opacity="1" d="M 20.109375 27.394531 L 13.394531 27.394531 L 11.980469 30.324219 L 10.050781 30.324219 L 10.050781 32 L 23.453125 32 L 23.453125 30.324219 L 21.527344 30.324219 Z M 31.796875 4.335938 L 30.292969 4.335938 L 30.292969 6.007812 L 31.796875 6.007812 C 31.816406 6.007812 31.832031 6.023438 31.832031 6.042969 L 31.832031 24.441406 C 31.832031 24.460938 31.816406 24.476562 31.796875 24.476562 L 1.707031 24.476562 C 1.691406 24.476562 1.675781 24.460938 1.675781 24.441406 L 1.675781 6.042969 C 1.675781 6.023438 1.691406 6.007812 1.707031 6.007812 L 22.242188 6.007812 L 22.242188 4.335938 L 1.707031 4.335938 C 0.765625 4.335938 0 5.101562 0 6.042969 L 0 24.441406 C 0 25.382812 0.761719 26.148438 1.707031 26.152344 L 31.796875 26.152344 C 32.742188 26.152344 33.507812 25.386719 33.507812 24.441406 L 33.507812 6.042969 C 33.503906 5.097656 32.742188 4.335938 31.796875 4.335938 M 10.308594 18.433594 L 16.335938 21.914062 L 16.335938 16.015625 L 10.308594 12.539062 Z M 17.171875 21.914062 L 23.195312 18.433594 L 23.195312 12.539062 L 17.171875 16.015625 Z M 10.730469 11.8125 L 16.753906 15.292969 L 22.777344 11.8125 L 16.753906 8.335938 Z M 23.375 4.335938 L 23.558594 6.007812 L 23.664062 6.988281 L 23.796875 8.214844 C 23.824219 8.472656 24.039062 8.667969 24.296875 8.667969 L 28.550781 8.667969 C 28.808594 8.667969 29.027344 8.472656 29.054688 8.214844 L 29.183594 6.988281 L 29.289062 6.007812 L 29.472656 4.335938 L 29.5625 3.503906 L 29.625 2.929688 L 23.226562 2.929688 L 23.289062 3.503906 Z M 25.058594 7.699219 L 25.03125 7.703125 C 24.875 7.699219 24.742188 7.578125 24.726562 7.421875 L 24.683594 6.992188 L 24.589844 6.011719 L 24.429688 4.335938 L 24.398438 3.992188 C 24.402344 3.835938 24.523438 3.707031 24.679688 3.691406 C 24.835938 3.675781 24.980469 3.78125 25.011719 3.933594 L 25.050781 4.335938 L 25.210938 6.011719 L 25.304688 6.992188 L 25.339844 7.363281 C 25.347656 7.445312 25.324219 7.527344 25.269531 7.589844 C 25.21875 7.65625 25.140625 7.695312 25.058594 7.699219 M 26.726562 7.390625 C 26.726562 7.515625 26.652344 7.628906 26.539062 7.679688 C 26.421875 7.730469 26.289062 7.703125 26.199219 7.613281 C 26.140625 7.554688 26.109375 7.472656 26.109375 7.390625 L 26.109375 3.964844 C 26.109375 3.882812 26.140625 3.804688 26.199219 3.746094 C 26.257812 3.683594 26.335938 3.652344 26.417969 3.652344 C 26.5 3.652344 26.578125 3.683594 26.636719 3.746094 C 26.695312 3.804688 26.726562 3.882812 26.726562 3.964844 Z M 28.261719 6.007812 L 28.167969 6.988281 L 28.125 7.421875 C 28.109375 7.578125 27.976562 7.699219 27.816406 7.699219 L 27.789062 7.699219 C 27.707031 7.691406 27.632812 7.652344 27.578125 7.585938 C 27.527344 7.523438 27.503906 7.441406 27.511719 7.359375 L 27.546875 6.988281 L 27.640625 6.007812 L 27.800781 4.335938 L 27.839844 3.933594 C 27.847656 3.851562 27.886719 3.777344 27.949219 3.722656 C 28.015625 3.671875 28.09375 3.648438 28.175781 3.652344 C 28.347656 3.671875 28.46875 3.824219 28.453125 3.992188 L 28.417969 4.335938 Z M 29.625 1.574219 L 28.214844 1.574219 C 28.097656 0.675781 27.332031 0.00390625 26.425781 0 C 25.507812 0 24.75 0.6875 24.636719 1.574219 L 23.226562 1.574219 L 23.226562 2.328125 L 29.625 2.328125 Z M 25.472656 1.574219 C 25.582031 1.136719 25.972656 0.824219 26.425781 0.824219 C 26.878906 0.824219 27.273438 1.136719 27.378906 1.574219 Z M 25.472656 1.574219 "/>
</svg>

<svg role="img" viewBox="0 0 33.508 32" height="32" width="33.508" xmlns="http://www.w3.org/2000/svg"><path d="M20.11 27.395h-6.715l-1.415 2.93h-1.93V32h13.403v-1.676h-1.926Zm11.687-23.06h-1.504v1.673h1.504c.02 0 .035.015.035.035v18.398c0 .02-.016.036-.035.036H1.707c-.016 0-.031-.016-.031-.036V6.043c0-.02.015-.035.031-.035h20.535V4.336H1.707A1.71 1.71 0 0 0 0 6.043v18.398c0 .942.762 1.707 1.707 1.711h30.09a1.71 1.71 0 0 0 1.71-1.71v-18.4a1.71 1.71 0 0 0-1.71-1.707M10.309 18.434l6.027 3.48v-5.898l-6.027-3.477Zm6.863 3.48 6.023-3.48v-5.895l-6.023 3.477ZM10.73 11.812l6.024 3.481 6.023-3.48-6.023-3.477Zm12.645-7.476.184 1.672.105.98.133 1.227a.504.504 0 0 0 .5.453h4.254a.508.508 0 0 0 .504-.453l.129-1.227.105-.98.184-1.672.09-.832.062-.574h-6.398l.062.574Zm1.684 3.363-.028.004a.315.315 0 0 1-.304-.281l-.043-.43-.094-.98-.16-1.676-.032-.344a.312.312 0 0 1 .282-.3c.156-.016.3.09.332.242l.039.402.16 1.676.094.98.035.371a.299.299 0 0 1-.07.227.282.282 0 0 1-.211.11m1.668-.31a.318.318 0 0 1-.188.29.306.306 0 0 1-.34-.067.316.316 0 0 1-.09-.222V3.965a.31.31 0 0 1 .309-.313.31.31 0 0 1 .309.313Zm1.535-1.382-.094.98-.043.434a.31.31 0 0 1-.309.277h-.027a.308.308 0 0 1-.277-.34l.035-.37.094-.981.16-1.672.039-.402a.32.32 0 0 1 .11-.211.34.34 0 0 1 .226-.07.312.312 0 0 1 .277.34l-.035.343Zm1.363-4.434h-1.41A1.81 1.81 0 0 0 26.425 0c-.917 0-1.675.688-1.788 1.574h-1.41v.754h6.398Zm-4.152 0c.109-.437.5-.75.953-.75.453 0 .847.313.953.75Zm0 0" fill="rgb(25.098039%, 25.098039%, 25.490196%)"/></svg>
